!!!!SEGMENT: pl-kk--kk-i-14--004_gorczycki-grzegorz-gerwazy--regina-caeli-laetare.krn
!!!cenid: 17xx:2192
!!!COM: Gorczycki, Grzegorz Gerwazy
!!!COM-rismid: pe30009207
!!!CDT: ~1666-1734/04/30
!!!CNT: Polish
!!!OTL: Regina caeli laetare
!!!PDT:
!!!AGN: Sacred
!!!SMS-siglum: PL-Kk
!!!SMS-shelfmark: Kk.I.14
!!!SMS-shelfwork: 004 W
!!!SMS-variant:
!!!SMS-altvar:
!!!NIFC-rismid: 1001154379
!!!URL-scan: http://repozytorium.nifc.pl/skany/pl-kk-nut--i-14
!!!ONB-nifc: UWAGA: T (skan 0003-0004), B (0016-0017). Następny utwór:
**kern	**text	**kern	**text
*part2	*part2	*part1	*part1
*staff2	*staff2	*staff1	*staff1
*I"Baſſo.	*	*I"2do Tenore	*
*I'B	*	*I'T 2	*
*clefF4	*	*clefC1	*
*k[]	*	*k[]	*
*M2/1	*	*M2/1	*
*met(C|)	*	*met(C|)	*
=1-	=1-	=1-	=1-
!	!	!LO:TX:a:t=allabreve	!
00r	.	2a\	Re-
.	.	4a\	-gi-
.	.	4a\	-na
.	.	2b-X\	cae-
.	.	4a\	-li
.	.	4a\	lae-
=2-	=2-	=2-	=2-
.	.	4g\	-ta-
.	.	4a\	.
.	.	4b-X\	.
.	.	4cc\	.
.	.	1dd	.
=3-	=3-	=3-	=3-
00r	.	2dd\	-re
.	.	2ee\	lae-
.	.	2.ff\	-ta-
.	.	8ee\L	.
.	.	8dd\J	.
=4-	=4-	=4-	=4-
.	.	4cc#X\	.
.	.	4dd\	.
.	.	4ee\	.
.	.	4cc#\	.
!	!	!LO:SIC:v:t=custos a	!
.	.	2dd\	.
!	!	!LO:LB:g=original	!
.	.	4a\	-re
.	.	4ccny\	lae-
=5-	=5-	=5-	=5-
!LO:TX:t=P:problem:kreska pseudotaktowa	!	!	!
1r	.	4dd\	-ta-
.	.	4cc\	.
.	.	4dd\	.
.	.	4ee\	.
2D/	Re-	4ff\	.
.	.	4a\	.
4D/	-gi-	1dd	.
!LO:TX:t=P:problem:kreska pseudotaktowa	!	!	!
4D/	-na	.	.
=6-	=6-	=6-	=6-
2F\	Cae-	.	.
!	!	!LO:TX:a:t=P:problem:# above	!
4E\	-li	2cc#X\	.
!LO:TX:t=P:problem:kreska pseudotaktowa	!	!	!
4E\	lae-	.	.
(4D\	-ta-	1dd	-re
4E\	.	.	.
4F\	.	.	.
4G\)	.	.	.
=7-	=7-	=7-	=7-
!LO:TX:t=P:problem:kreska pseudotaktowa	!	!	!
1A	.	2a\	Re-
.	.	4a\	-gi-
.	.	4a\	-na
!LO:TX:a:t=P:problem:oddech jako rozdzielacz słów:global	!	!	!
2G,<\	re	2b-X\	cae-
!LO:TX:t=P:problem:kreska pseudotaktowa	!	!	!
2A\	lae-	4a\	-li
.	.	4a\	lae-
=8-	=8-	=8-	=8-
2.B-X\	-ta-	4g\	-ta-
.	.	4a\	.
.	.	4b-X\	.
8A\L	.	4ccny\	.
!LO:TX:t=P:problem:kreska pseudotaktowa	!	!	!
8G\J	.	.	.
2F\	.	2dd\	.
4D\	-re	4a\	.
!LO:TX:t=P:problem:kreska pseudotaktowa	!	!	!
4F\	lae-	4a\	-re
=9-	=9-	=9-	=9-
2G\	-ta-	2b-X\	lae-
!LO:TX:t=P:problem:kreska pseudotaktowa	!	!	!
2A\	.	2a\	-ta-
2D\	-re	1a	-re
!LO:LB:g=original	!	!	!
!LO:TX:t=P:problem:kreska pseudotaktowa	!	!	!
2r	.	.	.
=10-	=10-	=10-	=10-
00r	.	1r	.
!	!	!LO:LB:g=original	!
.	.	2.dd\	al-
.	.	4b-X\	.
=11-	=11-	=11-	=11-
.	.	4cc\	.
.	.	4dd\	.
.	.	2g/	.
.	.	4a\	.
.	.	4b-\	.
.	.	(2.cc\	.
=12-	=12-	=12-	=12-
!LO:TX:t=P:problem:kreska pseudotaktowa	!	!	!
0r	.	.	.
.	.	4a\)	.
.	.	2.dd\	-le-
.	.	4cc\	-lu-
.	.	2bn\	-ia
=13-	=13-	=13-	=13-
2.A\	Al-	2.cc#X\	.
!LO:TX:t=P:problem:kreska pseudotaktowa	!	!	!
4F\	.	4a\	.
4G\	.	4b\	.
!	!	!LO:TX:t=P:problem:♯ above	!
4A\	.	4cc#X\	.
4D\	.	1dd	.
!LO:TX:t=P:problem:kreska pseudotaktowa	!	!	!
4E\	.	.	.
=14-	=14-	=14-	=14-
4F\	.	.	.
4G\	.	.	.
4A\	.	2r	.
!LO:TX:t=P:problem:kreska pseudotaktowa	!	!	!
4F\	.	.	.
4G\	.	1r	.
4E\	.	.	.
!LO:TX:t=P:problem:kreska pseudotaktowa	!	!	!
2F\	.	.	.
=15-	=15-	=15-	=15-
(4C\	.	2.ccny\	al-
4D\	.	.	.
4E\	.	.	.
!LO:TX:t=P:problem:kreska pseudotaktowa	!	!	!
4F\)	.	4a\	.
1.G	.	4b\	.
.	.	4cc\	.
.	.	2dd\	.
=16-	=16-	=16-	=16-
.	.	2cc\	le-
!LO:TX:t=P:problem:kreska pseudotaktowa	!	!	!
2F\	-le-	1dd	.
(2G\	-lu-	.	.
!	!	!LO:TX:t=P:problem:♯ above	!
2A\)	.	2cc#X\	-lu-
=17-	=17-	=17-	=17-
!LO:TX:t=P:problem:kreska pseudotaktowa	!	!	!
1D	-ia	1dd	-ia
!	!	!LO:LB:g=original	!
00r	.	0r	.
=18-	=18-	=18-	=18-
.	.	.	.
.	.	1r	.
=19-	=19-	=19-	=19-
.	.	2r	.
.	.	1dd	Qui-
!LO:TX:t=P:problem:kreska pseudotaktowa	!	!	!
1r	.	.	.
!	!	!LO:TX:t=P:problem:♯ above	!
.	.	2cc#X\	-a
=20-	=20-	=20-	=20-
2r	.	2dd\	quem
1A	Qui-	4a\	me-
.	.	4a\	-ru-
.	.	2dd\	-i-
!LO:TX:t=P:problem:kreska pseudotaktowa	!	!	!
2G\	-a	4b\	-ſti
.	.	4b\	por-
=21-	=21-	=21-	=21-
2A,<\	quem	2ccny\	-ta-
4D/	me-	2a\	-re,
!LO:TX:t=P:problem:kreska pseudotaktowa	!	!	!
4D/	-ru-	.	.
!LO:LB:g=original	!	!	!
2G\	-o-	1r	.
4E\	-ſti	.	.
!LO:TX:t=P:problem:kreska pseudotaktowa	!	!	!
4E\	por-	.	.
=22-	=22-	=22-	=22-
2D/	-ta-	2r	.
!LO:TX:t=P:problem:kreska pseudotaktowa	!	!	!
2C/	.	2cc\	quem
2D/	.	4a\	me-
.	.	4a\	-ru-
!LO:TX:t=P:problem:kreska pseudotaktowa	!	!	!
2E/	.	2ee\	-i-
=23-	=23-	=23-	=23-
2AA/	re	4cc#X\	-sti
.	.	4cc#\	por-
!LO:TX:t=P:problem:kreska pseudotaktowa	!	!	!
2r	.	1dd	-ta-
0r	.	.	.
!	!	!LO:TX:t=P:problem:♯ above	!
.	.	2cc#X\	.
=24-	=24-	=24-	=24-
.	.	2dd\	-re
.	.	2a\	al-
2r	.	(4dd\	-le-
.	.	4ee\)	.
!LO:TX:t=P:problem:kreska pseudotaktowa	!	!	!
2D/	al-	4dd\	-lu-
!	!	!LO:SIC:v:t=custos b	!
.	.	4ccny\	.
!	!	!LO:PB:g=original	!
=25-	=25-	=25-	=25-
(4G\	-le-	4b\	-ia
4A\)	.	4cc\	.
(4G\	-lu-	4dd\	.
!LO:TX:t=P:problem:kreska pseudotaktowa	!	!	!
4F\)	.	4b\	.
4E\	-ia	1cc	.
4F\	.	.	.
4G\	.	.	.
!LO:TX:t=P:problem:kreska pseudotaktowa	!	!	!
4E\	.	.	.
=26-	=26-	=26-	=26-
4F\	.	0r	.
4G\	.	.	.
4A\	.	.	.
!LO:TX:t=P:problem:kreska pseudotaktowa	!	!	!
4F\	.	.	.
2G\	al-	.	.
!LO:TX:t=P:problem:kreska pseudotaktowa	!	!	!
2A\	-le-	.	.
=27-	=27-	=27-	=27-
(4G\	-lu-	2r	.
4F\	.	.	.
4E\	.	2g/	al-
!LO:TX:t=P:problem:kreska pseudotaktowa	!	!	!
4D\)	.	.	.
2C/	ia	(4cc\	-le-
.	.	4dd\)	.
!LO:TX:t=P:problem:kreska pseudotaktowa	!	!	!
2C/	al-	(4cc\	-lu-
.	.	4b\)	.
=28-	=28-	=28-	=28-
(4F\	-le-	2a\	-ia
4G\)	.	.	.
!LO:LB:g=original	!	!	!
4F\	lu-	2r	.
!LO:TX:t=P:problem:kreska pseudotaktowa	!	!	!
4E\	.	.	.
2D/	-ia	0r	.
!LO:TX:t=P:problem:kreska pseudotaktowa	!	!	!
2D/	al-	.	.
=29-	=29-	=29-	=29-
(4G\	-le-	.	.
4A\)	.	.	.
(4G\	-lu-	.	.
!LO:TX:t=P:problem:kreska pseudotaktowa	!	!	!
4F\)	.	.	.
2E\	-ia	2r	.
!LO:TX:t=P:problem:kreska pseudotaktowa	!	!	!
2D/	al-	2a\	al-
=30-	=30-	=30-	=30-
2A\	-le-	2a\	-le-
2AA/	-lu-	2a\	-lu-
1Dl;;	-ia	1a	-ia
=31||	=31||	=31||	=31||
*M3/2	*	*M3/2	*
00.r	.	1.r	.
=32-	=32-	=32-	=32-
.	.	2r	.
.	.	(4a\	Res-
.	.	4g\)	.
.	.	(4a\	-ur-
!	!	!LO:SIC:v:t=custos cc	!
.	.	4b\)	.
!	!	!LO:LB:g=original	!
=33-	=33-	=33-	=33-
.	.	1cc	-re-
.	.	2a\	-xit
=34-	=34-	=34-	=34-
.	.	1b	Si-
.	.	2cc\	-cut
=35-	=35-	=35-	=35-
!LO:TX:t=P:problem:kreska pseudotaktowa	!	!	!
1.r	.	1dd	di-
.	.	2cc\	.
=36-	=36-	=36-	=36-
2r	.	1.dd	-xit
(4D/	Re-	.	.
4C/)	.	.	.
(4D/	-ſur-	.	.
!LO:TX:t=P:problem:kreska pseudotaktowa	!	!	!
4E/)	.	.	.
=37-	=37-	=37-	=37-
1F	-re-	1.r	.
!LO:TX:t=P:problem:kreska pseudotaktowa	!	!	!
2D/	-xit	.	.
=38-	=38-	=38-	=38-
1E	ſi-	2r	.
.	.	2cc\	re-
!LO:TX:t=P:problem:kreska pseudotaktowa	!	!	!
2F\	-cut	2cc\	-sur-
=39-	=39-	=39-	=39-
2.G\	di-	1b	-re-
4F\	.	.	.
!LO:TX:t=P:problem:kreska pseudotaktowa	!	!	!
2E\	.	2g/	-xit
!LO:LB:g=original	!	!	!
=40-	=40-	=40-	=40-
2F\	.	1.r	.
!LO:TX:t=P:problem:kreska pseudotaktowa	!	!	!
1E	.	.	.
=41-	=41-	=41-	=41-
2D/	-xit	2r	.
2r	.	(4cc\	re-
.	.	4b\)	.
!LO:TX:t=P:problem:kreska pseudotaktowa	!	!	!
2r	.	(4cc\	-ſur-
.	.	4dd\)	.
=42-	=42-	=42-	=42-
!LO:TX:t=P:problem:kreska pseudotaktowa	!	!	!
0.r	.	1ee	-re-
.	.	2ee\	-xit
=43-	=43-	=43-	=43-
.	.	1dd	ſi-
.	.	4cc\	-cut
.	.	4b\	.
=44-	=44-	=44-	=44-
2r	.	1a	di-
(4D/	re-	.	.
4C/)	.	.	.
(4D/	-ſur-	2a\	-xit
!LO:TX:t=P:problem:kreska pseudotaktowa	!	!	!
4E/)	.	.	.
!	!	!LO:LB:g=original	!
=45-	=45-	=45-	=45-
1F	-re-	2r	.
.	.	4a\	re-
.	.	4g\	.
!LO:TX:t=P:problem:kreska pseudotaktowa	!	!	!
2D/	-xit	4a\	-ſur-
.	.	4b\	.
=46-	=46-	=46-	=46-
1E	ſi-	1cc	-re-
!LO:TX:t=P:problem:kreska pseudotaktowa	!	!	!
2F\	-cut	2a\	-xit
=47-	=47-	=47-	=47-
2.G\	di-	1b	ſi-
4F\	.	.	.
!LO:TX:t=P:problem:kreska pseudotaktowa	!	!	!
2E\	.	2cc\	-cut
=48-	=48-	=48-	=48-
2F\	.	(2a\	di-
1C	.	1g)	.
=49-	=49-	=49-	=49-
!LO:TX:t=P:problem:kreska pseudotaktowa	!	!	!
1.FF	-xit	4a\	-xit
.	.	4a\	al-
.	.	2cc\	-le-
.	.	2dd\	-lu-
=50-	=50-	=50-	=50-
2C/	al-	2.ee\	-ia
2E\	-le-	.	.
.	.	4ee\	al-
!LO:TX:t=P:problem:kreska pseudotaktowa	!	!	!
2F\	-lu-	4dd\	-le-
.	.	4cc\	-lu-
=51-	=51-	=51-	=51-
2.G\	-ia	1.b	-ia
4G\	al-	.	.
4F\	-le-	.	.
4E\	-lu-	.	.
=52-	=52-	=52-	=52-
1.D	-ia	2dd\	al-
.	.	2dd\	-le-
!	!	!LO:SIC:v:t=custos b:s=custos cc	!
.	.	2dd\	-lu-
!LO:LB:g=original	!	!LO:LB:g=original	!
=53-	=53-	=53-	=53-
0.r	.	2.cc\	-ia
.	.	4dd\	al-
.	.	4cc\	.
.	.	4dd\	.
=54-	=54-	=54-	=54-
.	.	1ee	.
.	.	2dd\	-le-
=55-	=55-	=55-	=55-
1.r	.	1dd	-lu-
!	!	!LO:TX:t=P:problem:♯ above	!
.	.	2cc#X\	.
=56-	=56-	=56-	=56-
*M2/1	*	*M2/1	*
*met(C|)	*	*met(C)	*
!LO:TX:a:i:t=S.	!	!	!
2D/	O-	2dd\	-ia
!LO:TX:t=P:problem:kreska pseudotaktowa	!	!	!
2A\	-ra	2r	.
2E\	pro	00r	.
1G	no-	.	.
=57-	=57-	=57-	=57-
.	.	.	.
!LO:TX:t=P:problem:kreska pseudotaktowa	!	!	!
2F\	-bis	.	.
!LO:TX:t=P:problem:kreska pseudotaktowa	!	!	!
1E	De-	.	.
=58-	=58-	=58-	=58-
2D/	-u(m)	.	.
(1E	pro	.	.
.	.	00r	.
!LO:TX:t=P:problem:kreska pseudotaktowa	!	!	!
!LO:TX:a:t=P:problem:# above	!	!	!
2F#X\)	.	.	.
=59-	=59-	=59-	=59-
!LO:TX:a:t=P:problem:# above	!	!	!
2G#X\	no-	.	.
!LO:TX:t=P:problem:kreska pseudotaktowa	!	!	!
2A\	-bis	.	.
2A\	De-	.	.
!LO:TX:t=P:problem:kreska pseudotaktowa	!	!	!
!LO:TX:a:t=P:problem:# above	!	!	!
2G#X\	.	.	.
=60-	=60-	=60-	=60-
2A\	-um	.	.
4Fny\	o-	.	.
!LO:TX:t=P:problem:kreska pseudotaktowa	!	!	!
4E\	.	.	.
4D\	.	00r	.
4E\	.	.	.
4F\	.	.	.
!LO:TX:t=P:problem:kreska pseudotaktowa	!	!	!
4Gny\	.	.	.
=61-	=61-	=61-	=61-
2A\	.	.	.
!LO:TX:t=P:problem:kreska pseudotaktowa	!	!	!
2G\	-ra	.	.
2A\	pro	.	.
!LO:TX:t=P:problem:kreska pseudotaktowa	!	!	!
2B-X\	no-	.	.
!LO:LB:g=original	!	!	!
=62-	=62-	=62-	=62-
2G\	-bis	.	.
!LO:TX:t=P:problem:kreska pseudotaktowa	!	!	!
2A\	De-	.	.
!	!	!LO:TX:a:t=grave	!
2D/	-u(m)	2a\	O-
!LO:TX:t=P:problem:kreska pseudotaktowa	!	!	!
2r	.	2ee\	-ra
=63-	=63-	=63-	=63-
0r	.	2b\	pro
.	.	1dd	no-
.	.	2ccny\	-bis
=64-	=64-	=64-	=64-
!LO:TX:t=P:problem:kreska pseudotaktowa	!	!	!
1r	.	1b	De-
2r	.	1a	-u(m)
4F\	o-	.	.
!LO:TX:t=P:problem:kreska pseudotaktowa	!	!	!
4E\	.	.	.
=65-	=65-	=65-	=65-
(4D\	.	2r	.
4E\	.	.	.
4F\	.	(1a	pro
!LO:TX:t=P:problem:kreska pseudotaktowa	!	!	!
4G\)	.	.	.
2A\	.	.	.
!LO:TX:t=P:problem:kreska pseudotaktowa	!	!	!
2G\	-ra	2b\)	.
=66-	=66-	=66-	=66-
!	!	!LO:TX:t=P:problem:♯ above	!
2A\	pro	2cc#X\	no-
!LO:TX:t=P:problem:kreska pseudotaktowa	!	!	!
2B-X\	no-	2dd\	-bis
!	!	!LO:LB:g=original	!
2G\	-bis	2dd\	De-
!LO:TX:t=P:problem:kreska pseudotaktowa	!	!	!
2A\	De-	2cc#\	.
=67-	=67-	=67-	=67-
2D,</	-um	2dd\	-um
2.A\	al-	2r	.
.	.	00r	.
4F\	.	.	.
4G\	.	.	.
!LO:TX:t=P:problem:kreska pseudotaktowa	!	!	!
4A\	.	.	.
=68-	=68-	=68-	=68-
4D\	.	.	.
4E\	.	.	.
4F\	.	.	.
!LO:TX:t=P:problem:kreska pseudotaktowa	!	!	!
4G\	.	.	.
4A\	.	.	.
4F\	.	.	.
4G\	.	.	.
!LO:TX:t=P:problem:kreska pseudotaktowa	!	!	!
4E\	.	.	.
=69-	=69-	=69-	=69-
2F\	.	.	.
!LO:SIC:v:t=custos D	!	!	!
1C	.	.	.
.	.	0r	.
!LO:PB:g=original	!	!	!
1D	le-	.	.
=70-	=70-	=70-	=70-
!LO:TX:t=P:problem:kreska pseudotaktowa	!	!	!
2E\	-lu-	.	.
2AA/	-ia	1r	.
!LO:TX:t=P:problem:kreska pseudotaktowa	!	!	!
2r	.	.	.
=71-	=71-	=71-	=71-
00r	.	2r	.
.	.	2.dd\	al-
.	.	4b-X\	.
.	.	4ccny\	.
.	.	4dd\	.
=72-	=72-	=72-	=72-
.	.	2g/	.
.	.	4a\	.
.	.	4b-\	.
.	.	4cc\	.
.	.	4a\	.
.	.	2.dd\	.
=73-	=73-	=73-	=73-
!LO:TX:t=P:problem:kreska pseudotaktowa	!	!	!
0r	.	.	.
.	.	4cc\	le-
.	.	2bny\	-lu-
!	!	!LO:TX:t=P:problem:♯ above	!
.	.	2.cc#X\	-ia
.	.	4a\	.
=74-	=74-	=74-	=74-
2r	.	4b\	.
!	!	!LO:TX:t=P:problem:♯ above	!
.	.	4cc#X\	.
2.D/	al-	2dd\	.
!	!	!LO:TX:t=P:problem:kreska pseudotaktowa	!
.	.	1r	.
4BB-X/	.	.	.
4C/	.	.	.
!LO:TX:t=P:problem:kreska pseudotaktowa	!	!	!
4D/	.	.	.
=75-	=75-	=75-	=75-
2GG/	.	2b\	al-
4AAn/	.	4ccny\	.
!LO:TX:t=P:problem:kreska pseudotaktowa	!	!LO:TX:t=P:problem:kreska pseudotaktowa	!
4BBny/	.	4dd\	.
!	!	!LO:LB:g=original	!
4C/	.	4ee\	.
4AA/	-le-	4cc\	-le-
1D	-lu-	2ff\	-le-
=76-	=76-	=76-	=76-
.	.	1ee	.
!LO:TX:t=P:problem:kreska pseudotaktowa	!	!	!
2C#X/	.	.	.
2D/	-ia	2dd\	-ia
2.A\	al-	2r	.
=77-	=77-	=77-	=77-
.	.	1r	.
4F\	.	.	.
4G\	.	.	.
!LO:TX:t=P:problem:kreska pseudotaktowa	!	!	!
4A\	.	.	.
4D\	.	2.dd\	al-
4E\	.	.	.
4F\	.	.	.
!LO:TX:t=P:problem:kreska pseudotaktowa	!	!	!
4G\	.	4b-X\	.
=78-	=78-	=78-	=78-
4A\	.	4cc\	.
4F\	.	4dd\	.
4G\	.	2g/	.
4E\	.	.	.
!LO:LB:g=original	!	!	!
2F\	.	4a\	.
.	.	4b-\	.
4Cny/	.	2.cc\	.
!LO:TX:t=P:problem:kreska pseudotaktowa	!	!	!
4D\	.	.	.
=79-	=79-	=79-	=79-
4E\	.	.	.
4F\	.	4cc\	-le-
1G	.	2bny\	-lu-
.	.	2a\	-ia
2F\	-le-	2dd\	al-
=80-	=80-	=80-	=80-
1G	-lu-	1b	-le-
1.A	.	2a\	-lu-
.	.	2f/	.
=81-	=81-	=81-	=81-
.	.	1a	.
2AA/	.	.	.
!	!	!LO:TX:t=P:problem:kreska pseudotaktowa pojedyncza	!
1Dl;;	-ia	1a	-ia
=82||	=82||	=82||	=82||
2r	.	2r	.
!	!	!LO:LB:g=original	!
1BB-X	Al-	1b-X	Al-
2GG/	-le-	2b-\	-le-
=83-	=83-	=83-	=83-
0AA	-lu-	1a	-lu-
.	.	1a	.
=84-	=84-	=84-	=84-
0Dl;;	-ia.	0f#Xl;;	-ia.
==	==	==	==
*-	*-	*-	*-
!!!system-decoration: s1,s2
!!!RDF**kern: < = below
!!!RDF**kern: l = terminal long
!!!ENC: Marta Lawrence
!!!END: 2021-07-20
!!!ENC: Krzysztof Stępień
!!!END: 2021-06-30
